images/healthsign.svg

<?xml version="1.0" encoding="UTF-8" standalone="no"?>
<!-- Created with Inkscape (http://www.inkscape.org/) -->
<svg
    xmlns:inkscape="http://www.inkscape.org/namespaces/inkscape"
    xmlns:rdf="http://www.w3.org/1999/02/22-rdf-syntax-ns#"
    xmlns="http://www.w3.org/2000/svg"
    xmlns:cc="http://creativecommons.org/ns#"
    xmlns:dc="http://purl.org/dc/elements/1.1/"
    xmlns:sodipodi="http://sodipodi.sourceforge.net/DTD/sodipodi-0.dtd"
    xmlns:svg="http://www.w3.org/2000/svg"
    xmlns:ns1="http://sozi.baierouge.fr"
    xmlns:xlink="http://www.w3.org/1999/xlink"
    id="svg2"
    sodipodi:docname="medickit.svg"
    viewBox="0 0 30 22"
    sodipodi:version="0.32"
    version="1.0"
    inkscape:output_extension="org.inkscape.output.svg.inkscape"
    inkscape:version="0.46"
  >
  <sodipodi:namedview
      id="base"
      bordercolor="#666666"
      inkscape:pageshadow="2"
      guidetolerance="10.0"
      pagecolor="#ffffff"
      gridtolerance="10.0"
      inkscape:zoom="4"
      objecttolerance="10.0"
      borderopacity="1.0"
      inkscape:current-layer="svg2"
      inkscape:cx="10.968596"
      inkscape:guide-bbox="true"
      inkscape:cy="34.334554"
      inkscape:window-y="25"
      inkscape:window-x="0"
      inkscape:window-height="951"
      showgrid="false"
      inkscape:pageopacity="0.0"
      inkscape:window-width="1280"
      showguides="true"
    >
    <inkscape:grid
        id="grid2384"
        visible="true"
        type="xygrid"
        enabled="true"
    />
  </sodipodi:namedview
  >
  <rect
      id="rect2386"
      style="fill:#7f7f7f"
      rx="2"
      ry="2"
      height="22"
      width="30"
      y="0"
      x="0"
  />
  <rect
      id="rect3158"
      style="fill:#fefefe"
      rx="1.5"
      ry="1.5"
      height="18"
      width="26"
      y="2"
      x="2"
  />
  <path
      id="rect3164"
      style="fill:#e6e6e6"
      d="m8.5312 2l-6.5312 9.797v5.953c0 0.11 0.0213 0.223 0.0312 0.328l10.719-16.078h-4.2188zm8.4688 0l-12 18h7.062l12.032-18h-7.094zm11 2.5781l-10.281 15.422h2.843l7.438-11.156v-4.2659z"
  />
  <path
      id="rect3160"
      sodipodi:nodetypes="ccccccccccccc"
      style="fill:#ff0000"
      d="m6 3v3h-3v4h3v3h4v-3h3v-4h-3v-3h-4z"
  />
  <path
      id="rect3180"
      sodipodi:nodetypes="ccccccccccccc"
      style="fill-opacity:.46330;fill:#000000"
      d="m14 0v14h-14v2h14v6h2v-6h14v-2h-14v-14h-2z"
  />
  <metadata
    >
    <rdf:RDF
      >
      <cc:Work
        >
        <dc:format
          >image/svg+xml</dc:format
        >
        <dc:type
            rdf:resource="http://purl.org/dc/dcmitype/StillImage"
        />
        <cc:license
            rdf:resource="http://creativecommons.org/licenses/publicdomain/"
        />
        <dc:publisher
          >
          <cc:Agent
              rdf:about="http://openclipart.org/"
            >
            <dc:title
              >Openclipart</dc:title
            >
          </cc:Agent
          >
        </dc:publisher
        >
        <dc:title
          >Simple space platform game stuff 4</dc:title
        >
        <dc:date
          >2006-12-26T00:00:00</dc:date
        >
        <dc:description
        />
        <dc:source
          >https://openclipart.org/detail/24564/-by--24564</dc:source
        >
        <dc:creator
          >
          <cc:Agent
            >
            <dc:title
              >qubodup</dc:title
            >
          </cc:Agent
          >
        </dc:creator
        >
      </cc:Work
      >
      <cc:License
          rdf:about="http://creativecommons.org/licenses/publicdomain/"
        >
        <cc:permits
            rdf:resource="http://creativecommons.org/ns#Reproduction"
        />
        <cc:permits
            rdf:resource="http://creativecommons.org/ns#Distribution"
        />
        <cc:permits
            rdf:resource="http://creativecommons.org/ns#DerivativeWorks"
        />
      </cc:License
      >
    </rdf:RDF
    >
  </metadata
  >
</svg
>

<svg xmlns="http://www.w3.org/2000/svg" viewBox="0 0 30 22" version="1"><rect rx="2" ry="2" height="22" width="30" fill="#7f7f7f"/><rect rx="1.5" ry="1.5" height="18" width="26" y="2" x="2" fill="#fefefe"/><path d="M8.531 2L2 11.797v5.953c0 .11.021.223.031.328L12.751 2H8.53zM17 2L5 20h7.062L24.094 2H17zm11 2.578L17.719 20h2.843L28 8.844V4.578z" fill="#e6e6e6"/><path d="M6 3v3H3v4h3v3h4v-3h3V6h-3V3H6z" fill="red"/><path d="M14 0v14H0v2h14v6h2v-6h14v-2H16V0h-2z" fill-opacity=".463"/></svg>
